Obsidian/status/16s/btsync-gui-8.svg

<svg height="16" width="16" xmlns="http://www.w3.org/2000/svg"><path d="m14.999999 7.9999994c.000001-3.8657493-3.134249-6.9999992-6.9999991-6.9999994-3.8657499-.00000006-7.00000055 3.1342504-7.00000025 7 .00000075 3.86575 3.13425045 7.000001 7.00000155 7 3.8657488 0 6.9999988-3.13425 6.9999978-7.0000006zm-1.999999.0000007c0 2.4190029-1.717696 4.4371699-4.0000013 4.9003909l.0000017 1.099607-3.0000006-1.999997 2.9999998-2.0000011.0000001.8164061c1.1628043-.413125 2.0000003-1.511895 2.0000003-2.8164055-.001256-.7135104-.256779-1.4032128-.720703-1.945313l1.033203-1.7910156c1.070712.946976 1.68493 2.306929 1.6875 3.7363282zm-3-4.0000001-2.9999999 2.0000001-.0000005-.8164065c-1.1628048.413124-1.9999994 1.5118956-2.0000003 2.8164069.00126.7135089.2567797 1.403212.720703 1.9453139l-1.0332021 1.7910136c-1.0707125-.946976-1.6848992-2.3069294-1.6875002-3.7363278-.0000009-2.4190036 1.7176961-4.4371696 3.9999992-4.900391l.0000008-1.099609z" fill="#d3dae3"/></svg>

<svg xmlns="http://www.w3.org/2000/svg" width="16" height="16" version="1.1">
 <defs>
  <style id="current-color-scheme" type="text/css">
   .ColorScheme-Text { color:#d3dae3; } .ColorScheme-Highlight { color:#5294e2; }
  </style>
 </defs>
 <path style="fill:currentColor" class="ColorScheme-Text" d="M 14.999999,7.9999994 C 15,4.1342501 11.86575,1.0000002 7.9999999,1 4.13425,0.99999994 0.99999935,4.1342504 0.99999965,8 1.0000004,11.86575 4.1342501,15.000001 8.0000012,15 11.86575,15 15,11.86575 14.999999,7.9999994 Z M 13,8.0000001 C 13,10.419003 11.282304,12.43717 8.9999987,12.900391 l 1.7e-6,1.099607 -3.0000006,-1.999997 2.9999998,-2.0000011 10e-8,0.8164061 C 10.162804,10.403281 11,9.304511 11,8.0000005 10.998744,7.2864901 10.743221,6.5967877 10.279297,6.0546875 L 11.3125,4.2636719 C 12.383212,5.2106479 12.99743,6.5706009 13,8.0000001 Z M 10,4 7.0000001,6.0000001 l -5e-7,-0.8164065 c -1.1628048,0.413124 -1.9999994,1.5118956 -2.0000003,2.8164069 0.00126,0.7135089 0.2567797,1.403212 0.720703,1.9453139 L 4.6875002,11.736328 C 3.6167877,10.789352 3.002601,9.4293986 3,8.0000002 2.9999991,5.5809966 4.7176961,3.5628306 6.9999992,3.0996092 L 7,2.0000002 10,4 Z"/>
</svg>
